public/img/overview/icons/white/settings.svg

<?xml version="1.0" encoding="UTF-8"?>
<svg width="55px" height="51px" viewBox="0 0 55 51" version="1.1" xmlns="http://www.w3.org/2000/svg" xmlns:xlink="http://www.w3.org/1999/xlink">
    <!-- Generator: Sketch 55 (78076) - https://sketchapp.com -->
    <title>whnoun_Settings_721443 Copy 2</title>
    <desc>Created with Sketch.</desc>
    <defs>
        <path d="M47.4806262,26.0621572 C48.3319781,26.8018224 48.8205034,27.8715068 48.8205046,28.9961449 L48.8205046,49.3111313 C48.8205046,50.2399996 48.056759,51 47.1232745,51 L7.87672251,51 C6.94327107,51 6.17952606,50.2399996 6.17952606,49.3111313 L6.17952606,29.0068545 C6.17952606,27.8753956 6.67099671,26.7992079 7.52750725,26.0550802 L25.365563,11.518504 C26.5882959,10.4562128 28.4117011,10.4562128 29.6344683,11.518504 L47.4806262,26.0621572 Z M37.8306547,34.4797825 L37.8306547,33.1456717 C37.8306547,32.6741946 37.4694279,32.280426 36.9975469,32.2375877 L35.430416,32.0953657 C35.3550423,32.0884814 35.2934622,32.0342307 35.2759245,31.9609213 C35.0776436,31.1332848 34.7495369,30.3566474 34.313579,29.6521721 C34.2738594,29.5879783 34.2789206,29.5063175 34.327384,29.4484342 L35.3351187,28.2439856 C35.6382725,27.8817061 35.6138642,27.3491598 35.2788391,27.0158232 L34.3308591,26.0724834 C33.9958818,25.7392103 33.4607846,25.7148592 33.0966728,26.0164504 L31.8862065,27.0189455 C31.8280196,27.0671397 31.7460328,27.0721759 31.6815518,27.0327163 C30.9735754,26.5992952 30.1930145,26.2728428 29.3612649,26.0758621 C29.2876232,26.0583953 29.233023,25.9971333 29.2261205,25.9221663 L29.0696761,24.2208692 C29.0338624,23.8314338 28.70566,23.533414 28.3127054,23.533414 L26.6866834,23.533414 C26.2936331,23.533414 25.9653988,23.8315608 25.9297151,24.2210597 L25.773797,25.9221028 C25.7669265,25.9971333 25.7123104,26.0583953 25.6386686,26.0758621 C24.806903,26.2728428 24.0263581,26.5992952 23.3183817,27.0327163 C23.2539007,27.0721759 23.171898,27.0671397 23.113711,27.0189455 L21.7076391,25.8544033 C21.4543615,25.6446088 21.0821463,25.6615654 20.8491273,25.8934163 L19.6652,27.071473 C19.3618548,27.3733204 19.3397527,27.8554436 19.614189,28.1835535 L20.6722602,29.4484977 C20.7206939,29.506381 20.7257871,29.5879147 20.6861313,29.6521086 C20.2507819,30.3565839 19.9224017,31.1332848 19.7244261,31.9608578 C19.7069044,32.0341671 19.645306,32.0884814 19.5699027,32.0953657 L18.0024688,32.2376512 C17.5305856,32.2804259 17.1693428,32.6741946 17.1693428,33.1456717 L17.1693428,34.4797824 C17.1693428,34.9511983 17.530442,35.3448423 18.0021976,35.3878075 L19.5699506,35.5306032 C19.6453402,35.537424 19.7068884,35.5917994 19.7244102,35.6650453 C19.9223858,36.4927453 20.2507819,37.2693849 20.6861313,37.9739215 C20.725787,38.0381154 20.7206939,38.1196513 20.6722602,38.1775325 L19.664783,39.3819198 C19.361693,39.7442582 19.3861331,40.2767433 19.7211765,40.61008 L20.6690904,41.5531657 C21.0040995,41.8865024 21.5391808,41.9107242 21.9032607,41.6091965 L23.1136791,40.6066379 C23.1718979,40.5583803 23.2539007,40.5534098 23.3183977,40.5928694 C24.02639,41.0266714 24.8069509,41.3528064 25.6387164,41.5500411 C25.7123422,41.5675056 25.7669265,41.6288334 25.7737811,41.7037981 L25.9167418,43.2635126 C25.9597929,43.7330781 26.3554867,44.0925549 26.8293228,44.0925549 L28.1701138,44.0925549 C28.6438383,44.0925549 29.0394842,43.7332732 29.0826493,43.2638346 L29.2261364,41.7037981 C29.2330389,41.6287699 29.2875911,41.5675057 29.3612011,41.5500411 C30.1929826,41.3528064 30.9735434,41.0266715 31.6815198,40.5928695 C31.7460327,40.5534098 31.8280354,40.5583803 31.8862384,40.6066379 L33.0967046,41.6091966 C33.4608164,41.9107242 33.9958817,41.8865024 34.330875,41.5531658 L35.2787433,40.6101435 C35.6138003,40.2768069 35.6382405,39.7442582 35.3350548,39.3819199 L34.3273838,38.177596 C34.2789206,38.119715 34.2738593,38.038052 34.3135789,37.9739215 C34.7495367,37.269385 35.0776594,36.4926819 35.2759244,35.6649819 C35.293478,35.591736 35.3550103,35.537424 35.430384,35.5306033 L36.9978157,35.3878076 C37.4695736,35.3448424 37.8306545,34.9511983 37.8306545,34.4797825 Z M27.1811495,29.9215689 C29.546764,29.7356809 31.514937,31.6394416 31.4196579,33.9756053 C31.3376711,35.985439 29.6833646,37.6315965 27.6635562,37.7132595 C25.3158485,37.8081784 23.4026267,35.8499765 23.5891809,33.4961578 C23.7391239,31.6039978 25.2796202,30.0710583 27.1811495,29.9215689 Z M54.1424075,21.2169507 C55.0318792,21.949412 55.2769873,23.2371154 54.6521678,24.2032097 C53.9073865,25.3548134 52.3316895,25.5716826 51.3028097,24.7243481 L29.352488,6.64767108 C28.2776789,5.76253447 26.7223522,5.76253447 25.6475432,6.64767108 L3.6972191,24.7243481 C2.66834333,25.5716826 1.09264471,25.3548134 0.347830868,24.2032097 C-0.276990236,23.2371153 -0.031879466,21.9494119 0.857624015,21.2169507 L7.20180353,15.9923178 C7.56126884,15.696273 7.76935092,15.2561582 7.76935092,14.7918204 L7.76935092,3.82485941 C7.76935092,2.8959917 8.53312729,2.13599179 9.46657872,2.13599179 L13.9925765,2.13599179 C14.9260599,2.13599179 15.6898043,2.8959917 15.6898043,3.82485941 L15.6898043,7.61217371 C15.6898043,8.16556664 16.337561,8.46875072 16.765992,8.1159711 L25.9989358,0.512338169 C26.4358873,0.152546226 26.9713378,-0.0132615617 27.4999997,0.000826621476 C28.0286593,-0.0132615617 28.5641416,0.152546226 29.0010931,0.512338169 L54.1424075,21.2169507 Z" id="path-1"></path>
    </defs>
    <g id="Frontend" stroke="none" stroke-width="1" fill="none" fill-rule="evenodd">
        <g id="noun_Settings_721443-Copy-2">
            <mask id="mask-2" fill="white">
                <use xlink:href="#path-1"></use>
            </mask>
            <use id="Mask" fill="#FFFFFF" fill-rule="nonzero" xlink:href="#path-1"></use>
        </g>
    </g>
</svg>

<svg width="55" height="51" xmlns="http://www.w3.org/2000/svg" xmlns:xlink="http://www.w3.org/1999/xlink"><defs><path d="M47.48 26.062c.852.74 1.34 1.81 1.34 2.934v20.315c0 .929-.763 1.689-1.697 1.689H7.877c-.934 0-1.697-.76-1.697-1.689V29.007a3.91 3.91 0 0 1 1.348-2.952L25.366 11.52a3.258 3.258 0 0 1 4.268 0l17.847 14.543zm-9.65 8.418v-1.334a.914.914 0 0 0-.832-.908l-1.568-.143a.175.175 0 0 1-.154-.134 7.867 7.867 0 0 0-.962-2.309.174.174 0 0 1 .013-.204l1.008-1.204a.908.908 0 0 0-.056-1.228l-.948-.944a.92.92 0 0 0-1.234-.056l-1.21 1.003a.176.176 0 0 1-.205.014 7.95 7.95 0 0 0-2.32-.957.175.175 0 0 1-.136-.154l-.156-1.701a.759.759 0 0 0-.757-.688h-1.626a.759.759 0 0 0-.757.688l-.156 1.701a.175.175 0 0 1-.135.154 7.95 7.95 0 0 0-2.32.957.176.176 0 0 1-.205-.014l-1.406-1.165a.64.64 0 0 0-.859.04l-1.184 1.177a.823.823 0 0 0-.05 1.113l1.057 1.264c.049.058.054.14.014.204a7.875 7.875 0 0 0-.962 2.309.175.175 0 0 1-.154.134l-1.568.143a.914.914 0 0 0-.833.908v1.334c0 .471.361.865.833.908l1.568.143a.175.175 0 0 1 .154.134c.198.828.527 1.604.962 2.309a.174.174 0 0 1-.014.204l-1.007 1.204a.909.909 0 0 0 .056 1.228l.948.943a.92.92 0 0 0 1.234.056l1.21-1.002a.176.176 0 0 1 .205-.014c.708.434 1.489.76 2.32.957a.175.175 0 0 1 .136.154l.143 1.56c.043.47.438.829.912.829h1.341c.474 0 .87-.36.913-.83l.143-1.56a.175.175 0 0 1 .135-.153 7.947 7.947 0 0 0 2.32-.957.176.176 0 0 1 .205.014l1.21 1.002a.92.92 0 0 0 1.235-.056l.948-.943a.908.908 0 0 0 .056-1.228l-1.008-1.204a.174.174 0 0 1-.013-.204 7.868 7.868 0 0 0 .962-2.309.175.175 0 0 1 .154-.134l1.568-.143a.914.914 0 0 0 .833-.908zm-10.649-4.558c2.366-.186 4.334 1.717 4.239 4.054-.082 2.01-1.737 3.656-3.756 3.737-2.348.095-4.261-1.863-4.075-4.217.15-1.892 1.69-3.425 3.592-3.574zm26.961-8.705c.89.732 1.135 2.02.51 2.986a2.276 2.276 0 0 1-3.35.521L29.353 6.648a2.917 2.917 0 0 0-3.704 0L3.698 24.724a2.276 2.276 0 0 1-3.35-.52c-.625-.967-.38-2.255.51-2.987l6.344-5.225c.36-.296.567-.736.567-1.2V3.825c0-.929.764-1.689 1.698-1.689h4.526c.933 0 1.697.76 1.697 1.689v3.787c0 .554.648.857 1.076.504L25.999.512c.437-.36.972-.525 1.501-.511a2.257 2.257 0 0 1 1.501.511l25.141 20.705z" id="a"/></defs><use fill="#FFF" xlink:href="#a"/></svg>
